img/svg/coctail.svg

<svg xmlns="http://www.w3.org/2000/svg" xmlns:xlink="http://www.w3.org/1999/xlink" viewBox="0 0 46 43" enable-background="new 0 0 46 43"><path fill="#9BA9B0" d="M22.2 22h-3.6c-.3 0-.6.1-.8.3l-3.1 3.6v.1h-7.2v-.1c0-2-1.7-3.7-3.7-3.7s-3.7 1.7-3.7 3.7 1.7 3.7 3.7 3.7c.4 0 .7-.1 1-.1l5.1 4.9v6.6h-2.5c-.6 0-1 .4-1 1s.4 1 1 1h7.1c.6 0 1-.4 1-1s-.4-1-1-1h-2.5v-6.7l6.8-6.6c.3-.3.4-.7.2-1.1-.2-.4-.5-.6-.9-.6h-.8l1.7-2h3.1c.6 0 1-.4 1-1s-.4-1-.9-1zm-20 3.8c0-.9.8-1.7 1.7-1.7.9 0 1.7.8 1.7 1.7v.1h-1.8c-.4 0-.8.2-.9.6-.1.2-.1.4 0 .6-.5-.2-.7-.7-.7-1.3zm8.8 6.7l-4.7-4.5h9.3l-4.6 4.5z" enable-background="new"/><defs><filter id="a" filterUnits="userSpaceOnUse" x="15.4" y=".7" width="29.9" height="41.3"><feColorMatrix values="1 0 0 0 0 0 1 0 0 0 0 0 1 0 0 0 0 0 1 0"/></filter></defs><mask maskUnits="userSpaceOnUse" x="15.4" y=".7" width="29.9" height="41.3" id="b"><image overflow="visible" width="47" height="45" xlink:href="data:image/jpeg;base64,/9j/4AAQSkZJRgABAgEASABIAAD/7AARRHVja3kAAQAEAAAAHgAA/+4AIUFkb2JlAGTAAAAAAQMAEAMCAwYAAAGQAAABswAAAg3/2wCEABALCwsMCxAMDBAXDw0PFxsUEBAUGx8XFxcXFx8eFxoaGhoXHh4jJSclIx4vLzMzLy9AQEBAQEBAQEBAQEBAQEABEQ8PERMRFRISFRQRFBEUGhQWFhQaJhoaHBoaJjAjHh4eHiMwKy4nJycuKzU1MDA1NUBAP0BAQEBAQEBAQEBAQP/CABEIAC0AMAMBIgACEQEDEQH/xAB4AAEAAgMBAAAAAAAAAAAAAAAAAwUBAgYHAQEAAAAAAAAAAAAAAAAAAAAAEAACAgIDAQAAAAAAAAAAAAABBDADAgUQEQYHEQACAgIBBAMAAAAAAAAAAAABAhEDAAQhIDAxURIiFBIBAAAAAAAAAAAAAAAAAAAAMP/aAAwDAQACEQMRAAAA9AAAAil0KO+5HrjIAAAP/9oACAECAAEFAIf/2gAIAQMAAQUAh//aAAgBAQABBQCVhihWlb23nGmwexzZXhbXrvnyC+xAGIm//9oACAECAgY/AB//2gAIAQMCBj8AH//aAAgBAQEGPwDuvsbDiumsS7nwBn5a9mGPCu6lEY+gzRkjx0NXYodHEMpEgg5dt7ZXYoLfLXpgqE5n7RExgUCAOAO//9k=" transform="translate(-.5 -1)" filter="url(#a)"/></mask><path fill="#9BA9B0" d="M30.3 30.5c8.3 0 14.9-6.7 14.9-14.9s-6.7-14.9-14.9-14.9-14.9 6.7-14.9 14.9c0 8.3 6.7 14.9 14.9 14.9zm0-27.8c4.7 0 8.8 2.5 11.1 6.3h-22.2c2.3-3.8 6.4-6.3 11.1-6.3zm-12.7 10.4l.3.3s-.2 5.4 5.2 5.4c0 0 .5.1 1.2.1 1.7 0 4.5-.5 4.8-4.2 0 0 .2-.7.9-.7s.8.6.8.6 1.5 4.2 5.4 4.2h.3c1.2 0 5.7-.3 5.7-5.7 0 0 .3-.3.6-.9.3 1.1.5 2.2.5 3.4 0 7.1-5.8 12.9-12.9 12.9-7.1 0-12.9-5.8-12.9-12.9-.1-.9 0-1.7.1-2.5zm22.4 17.9h-.2c-.1 0-3.6.9-5.5 2.2-.3-.1-.7-.2-1.3-.2h-4c-.6 0-1 .1-1.3.2-2-1.3-5.5-2.2-5.5-2.2h-.2c-1.6 0-3 1.6-3 3v5c0 1.4 1.4 3 3 3h.2c.1 0 3-.7 5-1.9l.1.3c.4.6 1 .6 1.4.6h4.7c.9 0 1.3-.4 1.5-.9 2 1.1 4.9 1.9 5 1.9h.2c1.6 0 3-1.6 3-3v-5c-.1-1.4-1.5-3-3.1-3zm-13 6.7c-1 .6-2.9 2-5.1 2.3-.4-.1-.9-.7-.9-1v-5c0-.3.5-.9.9-1 2.1.4 4.1 1.7 5.1 2.3v2.4zm6 1.3h-4v-4h4v4zm8 0c0 .3-.5.9-.9 1-2.1-.4-4.1-1.7-5.1-2.3v-2.3c1-.6 2.9-2 5.1-2.3.4.1.9.7.9 1v4.9zm-14.9-15h8.1c.6 0 1-.4 1-.9s-.4-1.1-1-1.1h-8.1c-.6 0-1 .5-1 1.1 0 .5.4.9 1 .9z" mask="url(#b)" enable-background="new"/></svg>

<?xml version="1.0" encoding="utf-8"?>
<!-- Generator: Adobe Illustrator 18.1.1, SVG Export Plug-In . SVG Version: 6.00 Build 0)  -->
<svg version="1.1" xmlns="http://www.w3.org/2000/svg" xmlns:xlink="http://www.w3.org/1999/xlink" x="0px" y="0px"
	 viewBox="0 0 46 43" enable-background="new 0 0 46 43" xml:space="preserve">
<g id="Shape_47_1_" enable-background="new    ">
	<g id="Shape_47">
		<g>
			<path fill="#9BA9B0" d="M22.2,22h-3.6c-0.3,0-0.6,0.1-0.8,0.3l-3.1,3.6c0,0,0,0,0,0.1H7.5c0,0,0-0.1,0-0.1c0-2-1.7-3.7-3.7-3.7
				c-2,0-3.7,1.7-3.7,3.7c0,2,1.7,3.7,3.7,3.7c0.4,0,0.7-0.1,1-0.1l5.1,4.9V41H7.4c-0.6,0-1,0.4-1,1s0.4,1,1,1h7.1c0.6,0,1-0.4,1-1
				s-0.4-1-1-1H12v-6.7l6.8-6.6c0.3-0.3,0.4-0.7,0.2-1.1c-0.2-0.4-0.5-0.6-0.9-0.6h-0.8l1.7-2h3.1c0.6,0,1-0.4,1-1S22.7,22,22.2,22z
				 M2.2,25.8c0-0.9,0.8-1.7,1.7-1.7c0.9,0,1.7,0.8,1.7,1.7c0,0,0,0.1,0,0.1H3.8c-0.4,0-0.8,0.2-0.9,0.6c-0.1,0.2-0.1,0.4,0,0.6
				C2.4,26.9,2.2,26.4,2.2,25.8z M11,32.5L6.3,28h9.3L11,32.5z"/>
		</g>
	</g>
</g>
<defs>
	<filter id="Adobe_OpacityMaskFilter" filterUnits="userSpaceOnUse" x="15.4" y="0.7" width="29.9" height="41.3">
		<feColorMatrix  type="matrix" values="1 0 0 0 0  0 1 0 0 0  0 0 1 0 0  0 0 0 1 0"/>
	</filter>
</defs>
<mask maskUnits="userSpaceOnUse" x="15.4" y="0.7" width="29.9" height="41.3" id="Shape_45_3_">
	<g id="Shape_45Непрозора_маска_3_" filter="url(#Adobe_OpacityMaskFilter)">
		
			<image overflow="visible" width="47" height="45" id="Shape_45Непрозора_маска_2_" xlink:href="data:image/jpeg;base64,/9j/4AAQSkZJRgABAgEASABIAAD/7AARRHVja3kAAQAEAAAAHgAA/+4AIUFkb2JlAGTAAAAAAQMA
EAMCAwYAAAGQAAABswAAAg3/2wCEABALCwsMCxAMDBAXDw0PFxsUEBAUGx8XFxcXFx8eFxoaGhoX
Hh4jJSclIx4vLzMzLy9AQEBAQEBAQEBAQEBAQEABEQ8PERMRFRISFRQRFBEUGhQWFhQaJhoaHBoa
JjAjHh4eHiMwKy4nJycuKzU1MDA1NUBAP0BAQEBAQEBAQEBAQP/CABEIAC0AMAMBIgACEQEDEQH/
xAB4AAEAAgMBAAAAAAAAAAAAAAAAAwUBAgYHAQEAAAAAAAAAAAAAAAAAAAAAEAACAgIDAQAAAAAA
AAAAAAABBDADAgUQEQYHEQACAgIBBAMAAAAAAAAAAAABAhEDAAQhIDAxURIiFBIBAAAAAAAAAAAA
AAAAAAAAMP/aAAwDAQACEQMRAAAA9AAAAil0KO+5HrjIAAAP/9oACAECAAEFAIf/2gAIAQMAAQUA
h//aAAgBAQABBQCVhihWlb23nGmwexzZXhbXrvnyC+xAGIm//9oACAECAgY/AB//2gAIAQMCBj8A
H//aAAgBAQEGPwDuvsbDiumsS7nwBn5a9mGPCu6lEY+gzRkjx0NXYodHEMpEgg5dt7ZXYoLfLXpg
qE5n7RExgUCAOAO//9k=" transform="matrix(1 0 0 1 -0.5 -1)">
		</image>
	</g>
</mask>
<g id="Shape_45_1_" mask="url(#Shape_45_3_)" enable-background="new    ">
	<g id="Shape_45">
		<g>
			<path fill="#9BA9B0" d="M30.3,30.5c8.3,0,14.9-6.7,14.9-14.9c0-8.2-6.7-14.9-14.9-14.9c-8.2,0-14.9,6.7-14.9,14.9
				C15.4,23.9,22.1,30.5,30.3,30.5z M30.3,2.7c4.7,0,8.8,2.5,11.1,6.3L19.2,9C21.5,5.2,25.6,2.7,30.3,2.7z M17.6,13.1
				c0.1,0.1,0.2,0.2,0.3,0.3c0,0-0.2,5.4,5.2,5.4c0,0,0.5,0.1,1.2,0.1c1.7,0,4.5-0.5,4.8-4.2c0,0,0.2-0.7,0.9-0.7
				c0.7,0,0.8,0.6,0.8,0.6s1.5,4.2,5.4,4.2c0,0,0.1,0,0.3,0c1.2,0,5.7-0.3,5.7-5.7c0,0,0.3-0.3,0.6-0.9c0.3,1.1,0.5,2.2,0.5,3.4
				c0,7.1-5.8,12.9-12.9,12.9c-7.1,0-12.9-5.8-12.9-12.9C17.4,14.7,17.5,13.9,17.6,13.1z M40,31c-0.1,0-0.1,0-0.2,0
				c-0.1,0-3.6,0.9-5.5,2.2C34,33.1,33.6,33,33,33h-4c-0.6,0-1,0.1-1.3,0.2c-2-1.3-5.5-2.2-5.5-2.2c-0.1,0-0.1,0-0.2,0
				c-1.6,0-3,1.6-3,3v5c0,1.4,1.4,3,3,3c0.1,0,0.1,0,0.2,0c0.1,0,3-0.7,5-1.9c0,0.1,0.1,0.2,0.1,0.3c0.4,0.6,1,0.6,1.4,0.6H29l4.4,0
				c0.9,0,1.3-0.4,1.5-0.9c2,1.1,4.9,1.9,5,1.9c0.1,0,0.1,0,0.2,0c1.6,0,3-1.6,3-3v-5C43,32.6,41.6,31,40,31z M27,37.7
				c-1,0.6-2.9,2-5.1,2.3c-0.4-0.1-0.9-0.7-0.9-1v-5c0-0.3,0.5-0.9,0.9-1c2.1,0.4,4.1,1.7,5.1,2.3V37.7z M33,39h-4v-4h4V39z M41,39
				c0,0.3-0.5,0.9-0.9,1c-2.1-0.4-4.1-1.7-5.1-2.3v-2.3c1-0.6,2.9-2,5.1-2.3c0.4,0.1,0.9,0.7,0.9,1V39z M26.1,24h8.1
				c0.6,0,1-0.4,1-0.9c0-0.5-0.4-1.1-1-1.1h-8.1c-0.6,0-1,0.5-1,1.1C25.1,23.6,25.5,24,26.1,24z"/>
		</g>
	</g>
</g>
</svg>
